X: 1
T: Gushet Neuk
C: James Reith
R: Jig
F: http://www.math.mun.ca/~bshawyer/jigs/GushetNeck.abc
B: Glasgow Assembly And Other Scottish Dances
M: 6/8
L: 1/8
K: D
"A7"A \
| "D"dAd fed | "A7"e2A a2g | "D"fga "Bm"def | "Em"g2f "A7"e2A \
| "D"dAd fed | "A7"e2A a2g | "D"fed "A7"e2A | "D"[f3d3] [f2d2] :|
|: A \
| "Bm"BFB dcB | "F#7"^ABc Ffe | "Bm"def "(G)"Bcd | "Em"e2d "F#7"c2F \
| "Bm"BFB dcB | "F#7"^ABc Ffe | "Bm"dcB "F#7"c2F | "Bm"B3 B2 :|
